**kern	**kern	**dynam
*part1	*part1	*part1
*staff2	*staff1	*
*I"Piano	*	*
*clefF4	*clefG2	*
*k[]	*k[]	*
=1	=1	=1
(2A 2e	(2a 2cc	.
4B 4d	4g 4b	.
=	=	=
4F [4c	4f 4a	.
2C) 2G 2c]	2e)	.
=	=	=
(4D 4A	(4d 4f	.
4E 4G	4c 4g	.
4F)	4B) 4a	.
=	=	=
!	!	!LO:DY:a
([4E 4G#X	(4B [4e	>
2E]) 2A	2c) 2e]	]]
=	=	=
!	!	!LO:DY:a
(4EE [4E	([4e 4g#X 4b [4ee	pp
2AA) 2E]	2e]) 2a 2cc 2ee]	.
=:|!	=:|!	=:|!
!	!	!LO:DY:a
!	!LO:TX:a:i:t=sostenuto	!LO:DY:a
2A 2e	2a 2cc	p <
4A 4f	4a 4dd	[
=	=	=
!	!	!LO:DY:a
!	!	!LO:DY:a
([4A 4c#X [4a	4cc#X 4ee	f >
2A]) 2e 2a]	2cc#	]]
=	=	=
*-	*-	*-
!!!system-decoration: {(s1,s2)}
